!!!COM: Lassus, Orlandus
!!!OPR: Novae aliquot et ante hac non ita usitatae cantiones suavissimae
!!!ONM: 10
!!!OTL@@LA: Serve bone
**kern	**text	**kern	**text
*staff2	*staff2	*staff1	*staff1
*I"Bassus	*	*I"Tenor	*
*I'B	*	*I'T	*
*clefF3	*	*clefC3	*
*mclefF4	*	*mclefGv2	*
*k[]	*	*k[]	*
*G:mix	*	*G:mix	*
*M2/1	*	*M2/1	*
*met(C|)	*	*met(C|)	*
=1	=1	=1	=1
0r	.	1.d	Ser-
.	.	2G	-ve
=2	=2	=2	=2
1r	.	1c	bo-
1G.	Ser-	2.B	-ne
.	.	4c	.
=3	=3	=3	=3
.	.	2d	.
2C	-ve	1e	et
1F	bo-	.	.
.	.	2d	fi-
=4	=4	=4	=4
2.E	-ne	4c	-de-
.	.	4B	.
.	.	2g.	.
4F	.	.	.
2G	.	.	.
.	.	4f	.
1A	et	4e	.
.	.	4d	.
=5	=5	=5	=5
.	.	4c	.
.	.	4d	.
2G	fi-	2e.	.
1F	-de-	.	.
.	.	4d	.
.	.	2d.	.
=6	=6	=6	=6
1E	-lis,	.	.
.	.	8cL	.
.	.	8BJ	.
.	.	2c	.
2r	.	0d	-lis,
2D	qui-	.	.
=7	=7	=7	=7
2G	-a	.	.
2G	in	.	.
2.B	pau-	2r	.
.	.	2G	qui-
4A	.	.	.
=8	=8	=8	=8
4G	.	2d	-a
4F	.	.	.
2G	.	2d	in
1D	-ca	2.f	pau-
.	.	4e	.
=9	=9	=9	=9
2r	.	4d	.
.	.	4c	.
2D	fu-	2d	.
2F	-i-	1A	-ca
2D	-sti	.	.
=10	=10	=10	=10
2A	fi-	2r	.
4c	-de-	2A	fu-
4B	.	.	.
4A	.	2c	-i-
4G	.	.	.
2F	.	2A	-sti
=11	=11	=11	=11
0C	-lis,	2e	fi-
.	.	4g	-de-
.	.	4f	.
.	.	4e	.
.	.	4d	.
.	.	2c	.
=12	=12	=12	=12
2r	.	0G	-lis,
2C	fu-	.	.
2E	-i-	.	.
2C	-sti	.	.
=13	=13	=13	=13
2G	fi-	2r	.
2A.	-de-	2c	fi-
.	.	2e	-i-
4G	.	.	.
2A	.	2c	-sti
=14	=14	=14	=14
1E	-lis,	2g	fi-
.	.	2e.	-de-
2r	.	.	.
.	.	4d	.
4C	su-	2e	.
4D	.	.	.
=15	=15	=15	=15
4E	.	1B	-lis,
4F	.	.	.
2G	.	.	.
2E	-pra	2r	.
4A	mul-	4c	su-
4B	.	4d	.
=16	=16	=16	=16
4c	.	4e	.
4A	.	4f	.
2B	.	2g	.
2.c	-ta	2e	-pra
.	.	4A	mul-
4B	.	4B	.
=17	=17	=17	=17
2A	.	4c	.
.	.	4A	.
2G	te	2B	.
2r	.	2.c	-ta
2C	con-	.	.
.	.	4B	.
=18	=18	=18	=18
2c	-sti-	2A	.
2B	-tu-	2G	te
0A	-am,	2r	.
.	.	2c	con-
=19	=19	=19	=19
.	.	2f	-sti-
.	.	2e	-tu-
2r	.	0d	-am,
2D	con-	.	.
=20	=20	=20	=20
2G	-sti-	.	.
2F	-tu-	.	.
0E	-am:	2r	.
.	.	2G	con-
=21	=21	=21	=21
.	.	2c	-sti-
.	.	2B	-tu-
2r	.	1A	-am:
1c	in-	.	.
=22	=22	=22	=22
.	.	1e	in-
2A	-tra,	.	.
2r	.	1c	-tra,
1F	in-	.	.
=23	=23	=23	=23
.	.	1f	in-
2D	-tra	.	.
2r	.	1d	-tra,
2G	in	.	.
=24	=24	=24	=24
2F	gau-	2r	.
2E	-di-	2g	in
2.A	-um	2f	gau-
.	.	2e	-di-
4G	.	.	.
=25	=25	=25	=25
4F	.	2.a	-um
4E	.	.	.
2D	.	.	.
.	.	4g	.
2.B	Do-	4f	.
.	.	4e	.
.	.	2d	.
4A	.	.	.
=26	=26	=26	=26
2G	.	2.d	Do-
2F#X	-mi-	.	.
.	.	4d	-mi-
2G	-ni,	1d	-ni,
2D	in	.	.
=27	=27	=27	=27
2C	gau-	2r	.
2BB	-di-	2d	in
1E	-um,	2c	gau-
.	.	2B	-di-
=28	=28	=28	=28
2r	.	1e	-um,
2c	in	.	.
2B	gau-	2r	.
2A	-di-	2f	in
=29	=29	=29	=29
2.G	-um	2e	gau-
.	.	2d	-di-
4F	.	.	.
4E	.	2.g	-um
4D	.	.	.
2C.	.	.	.
.	.	4f	.
=30	=30	=30	=30
.	.	4e	.
4D	.	4d	.
4E	.	2c	.
4F	.	.	.
2G	.	2.B	Do-
2E.	Do-	.	.
.	.	4c	-mi-
=31	=31	=31	=31
.	.	2c	-ni
4F	-mi-	.	.
2F	-ni	2A.	De-
4D	De-	.	.
4E	.	4G	.
4F	.	4A	.
4G	.	4B	.
=32	=32	=32	=32
4A	.	4c	.
4F	.	4d	.
4G	.	4e	.
4A	.	4f	.
4B	.	4d	.
4G	.	4e	.
4A	.	2c.	.
4E	.	.	.
=33	=33	=33	=33
2F	.	.	.
.	.	4A	.
2E	-i	4c	.
.	.	4B	.
4c	tu-	4A	.
4B	.	4G	.
4A	.	1c	.
4G	.	.	.
=34	=34	=34	=34
4F	.	.	.
4E	.	.	.
2G.	.	2B	-i
.	.	1A	tu-
8FL	.	.	.
8EJ	.	.	.
2F	.	.	.
=35	=35	=35	=35
0G	-i.	0G	-i.
==	==	==	==
*-	*-	*-	*-
!!!RDF**kern: l = terminal long
!!!RDF**kern: i = editorial accidental
!!!PDT: 1590
!!!PED: Adam Berg
!!!AGN: Motet; Bicinium
!!!YOR: https://mdz-nbn-resolving.de/details:bsb00090897
!!!YOO: München, Bayerische Staatsbibliothek
!!!URL-scan: https://www.digitale-sammlungen.de/view/bsb00090897?page=13 Tenor
!!!URL-scan: https://www.digitale-sammlungen.de/view/bsb00090897?page=53 Bassus
!!!IIIF: https://api.digitale-sammlungen.de/iiif/presentation/v2/bsb00090897/manifest
!!!EED: Mirko Sattig
!!!END: 2023/11/24
!!!ENC: Mirko Sattig
!!!EEV: 2024/02/03
!!!title: @{ONM}. @{OTL}
!!!system-decoration: [(s1,s2)]